icon-themes/elementary_svg/cmd/sc_signpdf.svg

<svg height="16" width="16" xmlns="http://www.w3.org/2000/svg" xmlns:xlink="http://www.w3.org/1999/xlink"><linearGradient id="a"><stop offset="0" stop-color="#fff"/><stop offset=".99" stop-color="#ff9f9f" stop-opacity=".871"/><stop offset="1" stop-color="#fff" stop-opacity=".157"/><stop offset="1" stop-color="#febcbc" stop-opacity=".392"/></linearGradient><linearGradient id="b" gradientTransform="matrix(.2857 0 0 .3042 1.143 .233)" gradientUnits="userSpaceOnUse" x1="25.132" x2="25.132" y1=".985" y2="47.013"><stop offset="0" stop-color="#f89b7e"/><stop offset=".262" stop-color="#e35d4f"/><stop offset=".661" stop-color="#c6262e"/><stop offset="1" stop-color="#690b2c"/></linearGradient><linearGradient id="c" gradientTransform="matrix(.2538 0 0 .30502 19.13 -.685)" gradientUnits="userSpaceOnUse" x1="-51.786" x2="-51.786" y1="50.786" y2="2.906"><stop offset="0" stop-color="#ae0000" stop-opacity=".961"/><stop offset="1" stop-color="#b20000" stop-opacity=".494"/></linearGradient><radialGradient id="d" cx="8.276" cy="9.994" gradientTransform="matrix(0 2.56452 -2.89833 0 36.992 -24.486)" gradientUnits="userSpaceOnUse" r="12.672"><stop offset="0" stop-color="#f4f4f4"/><stop offset="1" stop-color="#dbdbdb"/></radialGradient><linearGradient id="e" gradientTransform="matrix(.24324 0 0 .35135 2.16 -.432)" gradientUnits="userSpaceOnUse" x1="24" x2="24" xlink:href="#a" y1="6.185" y2="41.815"/><linearGradient id="f" gradientUnits="userSpaceOnUse" x1="7.123" x2="7.008" xlink:href="#a" y1="-5.471" y2="4.692"/><linearGradient id="g" gradientTransform="matrix(.42397 -.43985 .38445 .3761 10.938 -1.51)" gradientUnits="userSpaceOnUse" x1="23.576" x2="23.576" y1="25.357" y2="31.211"><stop offset="0" stop-color="#181818"/><stop offset=".135" stop-color="#dbdbdb"/><stop offset=".202" stop-color="#a4a4a4"/><stop offset=".27" stop-color="#fff"/><stop offset=".447" stop-color="#8d8d8d"/><stop offset=".571" stop-color="#959595"/><stop offset=".72" stop-color="#cecece"/><stop offset="1" stop-color="#181818"/></linearGradient><linearGradient id="h" gradientTransform="matrix(.41198 -.4274 .44993 .44016 9.582 -3.16)" gradientUnits="userSpaceOnUse" x1="10.869" x2="11.083" y1="25.077" y2="30.467"><stop offset="0" stop-color="#1b1b1b"/><stop offset=".135" stop-color="#f3f3f3"/><stop offset=".202" stop-color="#b6b6b6"/><stop offset=".27" stop-color="#fff"/><stop offset=".447" stop-color="#9d9d9d"/><stop offset=".571" stop-color="#a6a6a6"/><stop offset=".72" stop-color="#e5e5e5"/><stop offset="1" stop-color="#1b1b1b"/></linearGradient><linearGradient id="i" gradientTransform="matrix(.32592 -.0283 -.02012 .32893 23.363 -7.068)" gradientUnits="userSpaceOnUse" x1="5.712" x2="9.522" y1="37.817" y2="41.392"><stop offset="0" stop-color="#a1a1a1"/><stop offset="1" stop-color="#828282"/></linearGradient><path d="m3 1h10v14h-10z" fill="url(#b)"/><path d="m12.5 14.5h-9v-13h9z" fill="none" stroke="url(#f)" stroke-linecap="round" stroke-opacity=".871"/><path d="m2.5.5h11v15h-11z" fill="none" stroke="url(#c)" stroke-linejoin="round"/><path d="m9.277 1c-2.923 2.785-4.992 3.942-6.277 4.42v1.48c.714-.235 1.6-.62 2.52-1.26 2.12-1.475 4.647-4.27 4.647-4.27-.695 1.513-.897 6.73-.91 13.63h3.743l-.048-1.866c-.164-.812-.958-5.15-1.09-5.938-.343-2.905.262-5.346.45-6.165-.05 0-1.61-.03-3.035-.03zm-6.277 7.686v1.426c1.63.748 3.524 2.675 4.558 4.888h1.115c-.49-2.03-3.668-5.09-5.673-6.314z" fill="url(#d)"/><path d="m12.313 1.03c-1.38 1.145-5.904 4.6-9.313 4.158v3.157s7.073 1.46 10-1.188v-6.063c-.074-.052-.16-.063-.25-.063h-.438zm.656 7.564c-1.307 1.793-2.61 4.06-3.5 6.406h1.124c.69-1.542 1.56-3.227 2.375-4.406v-2z" fill="#fff6f6" fill-rule="evenodd" opacity=".1"/><path d="m3.5 5.52v1.402m5.655 7.578h3.345v-5.448m-.007-7.552h-3.44m-5.553 7.215v1.332m4.037 4.453h1.05" fill="none" opacity=".3" stroke="url(#e)" stroke-linecap="round"/><path d="m2.5 5.316v1.504m6.83 8.68h4.17v-5.778m-.345-9.22-3.817-.002m-6.838 8.25v1.434m5.056 5.306 1.15.01" fill="none" opacity=".2" stroke="#410000" stroke-linejoin="round"/><path d="m25.797 3.03c.28-.23.59.13 1.193.718.278.4.58.804.717 1.27l7.163-7.178 3.732-4.5c.262-.274 1.95-2.476 1.33-3.083-.622-.608-2.985 1.404-3.248 1.676l-3.994 3.635z" fill="url(#g)" stroke="#0c0c0c" stroke-linejoin="round" stroke-width=".741" transform="matrix(.6744 0 0 .6744 -11.178 10.795)"/><path d="m6.248 12.81c.19-.156.37.116.776.513.405.396.62.565.474.76l4.782-4.683.018-.02-.01-.008c.148-.197-.04-.652-.445-1.048-.406-.397-.873-.583-1.063-.427l-.017.018z" fill="#0c0c0c" opacity=".6"/><path d="m27.58 5.162c.22-.29.1-.966-.5-1.554-.602-.588-1.065-.682-1.346-.45-.746 1.476-1.078 1.355-2.233 3.89.044.088.127.173.252.3z" style="fill-rule:evenodd;stroke-width:.741;stroke-linecap:round;stroke-linejoin:round;fill:url(#h);stroke:url(#i)" transform="matrix(.6744 0 0 .6744 -11.178 10.795)"/><path d="m11.104 7.494c.19-.156.656.03 1.062.427.405.397.593.853.445 1.05l.01.008c.52-.784 1.896-1.954 2.3-2.72.147-.197 1.17-1.546.765-1.942-.406-.397-1.806.688-1.996.845l-2.586 2.334z" fill="#0c0c0c" opacity=".6"/></svg>

<svg xmlns="http://www.w3.org/2000/svg" xmlns:xlink="http://www.w3.org/1999/xlink" width="16" height="16"><defs><linearGradient id="a"><stop offset="0" stop-color="#fff"/><stop offset=".99" stop-color="#ff9f9f" stop-opacity=".871"/><stop offset="1" stop-color="#fff" stop-opacity=".157"/><stop offset="1" stop-color="#febcbc" stop-opacity=".392"/></linearGradient><linearGradient id="d"><stop offset="0" stop-color="#f4f4f4"/><stop offset="1" stop-color="#dbdbdb"/></linearGradient><linearGradient x1="25.132" y1=".985" x2="25.132" y2="47.013" id="i" xlink:href="#b" gradientUnits="userSpaceOnUse" gradientTransform="matrix(.2857 0 0 .3042 1.143 .233)"/><linearGradient id="c"><stop offset="0" stop-color="#ae0000" stop-opacity=".961"/><stop offset="1" stop-color="#b20000" stop-opacity=".494"/></linearGradient><linearGradient x1="-51.786" y1="50.786" x2="-51.786" y2="2.906" id="k" xlink:href="#c" gradientUnits="userSpaceOnUse" gradientTransform="matrix(.2538 0 0 .30502 19.13 -.685)"/><radialGradient r="12.672" fy="9.994" fx="8.276" cy="9.994" cx="8.276" gradientTransform="matrix(0 2.56452 -2.89833 0 36.992 -24.486)" gradientUnits="userSpaceOnUse" id="l" xlink:href="#d"/><linearGradient id="b"><stop offset="0" stop-color="#f89b7e"/><stop offset=".262" stop-color="#e35d4f"/><stop offset=".661" stop-color="#c6262e"/><stop offset="1" stop-color="#690b2c"/></linearGradient><linearGradient y2="41.815" x2="24" y1="6.185" x1="24" gradientTransform="matrix(.24324 0 0 .35135 2.16 -.432)" gradientUnits="userSpaceOnUse" id="m" xlink:href="#a"/><linearGradient xlink:href="#a" id="j" x1="7.123" y1="-5.471" x2="7.008" y2="4.692" gradientUnits="userSpaceOnUse"/><linearGradient id="e"><stop offset="0" stop-color="#d88f22"/><stop offset="1" stop-color="#d88f22" stop-opacity="0"/></linearGradient><linearGradient xlink:href="#f" id="n" gradientUnits="userSpaceOnUse" gradientTransform="matrix(.42397 -.43985 .38445 .3761 10.938 -1.51)" x1="23.576" y1="25.357" x2="23.576" y2="31.211"/><linearGradient id="f"><stop offset="0" stop-color="#181818"/><stop offset=".135" stop-color="#dbdbdb"/><stop offset=".202" stop-color="#a4a4a4"/><stop offset=".27" stop-color="#fff"/><stop offset=".447" stop-color="#8d8d8d"/><stop offset=".571" stop-color="#959595"/><stop offset=".72" stop-color="#cecece"/><stop offset="1" stop-color="#181818"/></linearGradient><linearGradient xlink:href="#g" id="o" gradientUnits="userSpaceOnUse" gradientTransform="matrix(.41198 -.4274 .44993 .44016 9.582 -3.16)" x1="10.869" y1="25.077" x2="11.083" y2="30.467"/><linearGradient id="g"><stop offset="0" stop-color="#1b1b1b"/><stop offset=".135" stop-color="#f3f3f3"/><stop offset=".202" stop-color="#b6b6b6"/><stop offset=".27" stop-color="#fff"/><stop offset=".447" stop-color="#9d9d9d"/><stop offset=".571" stop-color="#a6a6a6"/><stop offset=".72" stop-color="#e5e5e5"/><stop offset="1" stop-color="#1b1b1b"/></linearGradient><linearGradient xlink:href="#h" id="p" gradientUnits="userSpaceOnUse" gradientTransform="matrix(.32592 -.0283 -.02012 .32893 23.363 -7.068)" x1="5.712" y1="37.817" x2="9.522" y2="41.392"/><linearGradient id="h"><stop offset="0" stop-color="#a1a1a1"/><stop offset="1" stop-color="#828282"/></linearGradient></defs><path d="M3 1h10v14H3V1z" fill="url(#i)"/><path d="M12.5 14.5h-9v-13h9z" fill="none" stroke="url(#j)" stroke-linecap="round" stroke-opacity=".871"/><path d="M2.5.5h11v15h-11V.5z" fill="none" stroke="url(#k)" stroke-linejoin="round"/><path d="M9.277 1C6.354 3.785 4.285 4.942 3 5.42V6.9c.714-.235 1.6-.62 2.52-1.26 2.12-1.475 4.647-4.27 4.647-4.27C9.472 2.883 9.27 8.1 9.257 15H13l-.048-1.866c-.164-.812-.958-5.15-1.09-5.938-.343-2.905.262-5.346.45-6.165-.05 0-1.61-.03-3.035-.03zM3 8.686v1.426c1.63.748 3.524 2.675 4.558 4.888h1.115C8.183 12.97 5.005 9.91 3 8.686z" style="isolation:auto;mix-blend-mode:normal" color="#000" overflow="visible" solid-color="#000000" fill="url(#l)"/><path d="M12.313 1.03C10.933 2.175 6.409 5.63 3 5.188v3.157s7.073 1.46 10-1.188V1.094c-.074-.052-.16-.063-.25-.063h-.438zm.656 7.564c-1.307 1.793-2.61 4.06-3.5 6.406h1.124c.69-1.542 1.56-3.227 2.375-4.406v-2z" style="isolation:auto;mix-blend-mode:normal;filter-blend-mode:normal;filter-gaussianBlur-deviation:0" color="#000" overflow="visible" opacity=".1" fill="#fff6f6" fill-rule="evenodd" solid-color="#000000"/><path d="M3.5 5.52v1.402M9.155 14.5H12.5V9.052M12.493 1.5h-3.44M3.5 8.715v1.332M7.537 14.5h1.05" opacity=".3" fill="none" stroke="url(#m)" stroke-linecap="round"/><path d="M2.5 5.316V6.82m6.83 8.68h4.17V9.722m-.345-9.22L9.338.5M2.5 8.75v1.434m5.056 5.306l1.15.01" color="#000" overflow="visible" opacity=".2" fill="none" stroke="#410000" stroke-linejoin="round"/><g><path d="M25.797 3.03c.28-.23.59.13 1.193.718.278.4.58.804.717 1.27L34.87-2.16l3.732-4.5c.262-.274 1.95-2.476 1.33-3.083-.622-.608-2.985 1.404-3.248 1.676L32.69-4.432z" fill="url(#n)" stroke="#0c0c0c" stroke-width=".741" stroke-linejoin="round" transform="translate(-11.178 10.795) scale(.6744)"/><path d="M6.248 12.81c.19-.156.37.116.776.513.405.396.62.565.474.76L12.28 9.4l.018-.02-.01-.008c.148-.197-.04-.652-.445-1.048-.406-.397-.873-.583-1.063-.427l-.017.018-4.515 4.895z" opacity=".6" fill="#0c0c0c"/><path d="M27.58 5.162c.22-.29.1-.966-.5-1.554-.602-.588-1.065-.682-1.346-.45-.746 1.476-1.078 1.355-2.233 3.89.044.088.127.173.252.3z" fill="url(#o)" fill-rule="evenodd" stroke="url(#p)" stroke-width=".741" stroke-linecap="round" stroke-linejoin="round" transform="translate(-11.178 10.795) scale(.6744)"/><path d="M11.104 7.494c.19-.156.656.03 1.062.427.405.397.593.853.445 1.05l.01.008c.52-.784 1.896-1.954 2.3-2.72.147-.197 1.17-1.546.765-1.942-.406-.397-1.806.688-1.996.845l-2.586 2.334z" opacity=".6" fill="#0c0c0c"/></g></svg>
